Numix-GalliumOS/64/emblems/emblem-desktop.svg

<?xml version="1.0" encoding="UTF-8" standalone="no"?>
<svg
   xmlns:dc="http://purl.org/dc/elements/1.1/"
   xmlns:cc="http://creativecommons.org/ns#"
   xmlns:rdf="http://www.w3.org/1999/02/22-rdf-syntax-ns#"
   xmlns:svg="http://www.w3.org/2000/svg"
   xmlns="http://www.w3.org/2000/svg"
   xmlns:sodipodi="http://sodipodi.sourceforge.net/DTD/sodipodi-0.dtd"
   xmlns:inkscape="http://www.inkscape.org/namespaces/inkscape"
   width="64"
   height="64"
   viewBox="0 0 64 64"
   id="svg2"
   version="1.1"
   inkscape:version="0.91 r13725"
   sodipodi:docname="emblem-desktop.svg">
  <metadata
     id="metadata12">
    <rdf:RDF>
      <cc:Work
         rdf:about="">
        <dc:format>image/svg+xml</dc:format>
        <dc:type
           rdf:resource="http://purl.org/dc/dcmitype/StillImage" />
      </cc:Work>
    </rdf:RDF>
  </metadata>
  <defs
     id="defs10" />
  <sodipodi:namedview
     pagecolor="#ffffff"
     bordercolor="#666666"
     borderopacity="1"
     objecttolerance="10"
     gridtolerance="10"
     guidetolerance="10"
     inkscape:pageopacity="0"
     inkscape:pageshadow="2"
     inkscape:window-width="1366"
     inkscape:window-height="704"
     id="namedview8"
     showgrid="false"
     inkscape:object-nodes="true"
     inkscape:zoom="11.313708"
     inkscape:cx="33.023888"
     inkscape:cy="21.599441"
     inkscape:window-x="0"
     inkscape:window-y="27"
     inkscape:window-maximized="1"
     inkscape:current-layer="svg2">
    <inkscape:grid
       type="xygrid"
       id="grid4140" />
  </sodipodi:namedview>
  <path
     style="fill:#fff;stroke:#777;stroke-width:.792"
     d="M 43.605469 24 C 43.602539 34.825195 34.825195 43.602539 24 43.602539 C 13.174805 43.602539 4.397461 34.825195 4.394531 24 C 4.394531 13.171875 13.171875 4.394531 24 4.394531 C 34.828125 4.394531 43.605469 13.171875 43.605469 24 Z "
     transform="scale(1.33333)"
     id="path4" />
  <path
     style="fill:#427fec;fill-opacity:0.94100001"
     d="M 16 16 L 16 39 L 27 39 L 27 45 L 23 45 L 23 48 L 41 48 L 41 45 L 37 45 L 37 39 L 48 39 L 48 16 L 16 16 z "
     id="path6" />
</svg>

<svg xmlns="http://www.w3.org/2000/svg" viewBox="0 0 64 64">
 <path d="m 43.605 24 c -0.003 10.825 -8.78 19.603 -19.605 19.603 c -10.825 0 -19.603 -8.777 -19.605 -19.603 c 0 -10.828 8.777 -19.605 19.605 -19.605 c 10.828 0 19.605 8.777 19.605 19.605 Z" transform="scale(1.33333)" style="fill:#fff;stroke:#777;stroke-width:0.792"/>
 <path d="m 16 16 l 0 23 l 11 0 l 0 6 l -4 0 l 0 3 l 18 0 l 0 -3 l -4 0 l 0 -6 l 11 0 l 0 -23 l -32 0 z" style="fill:#427fec;fill-opacity:0.941"/>
</svg>
